img/mascot.svg

<?xml version="1.0" encoding="UTF-8" standalone="yes"?><svg xmlns="http://www.w3.org/2000/svg" xmlns:xlink="http://www.w3.org/1999/xlink" width="302px" height="152px" viewBox="0 0 302 152" version="1.1" style="zoom: 1;"><!-- Generator: Sketch 47.1 (45422) - http://www.bohemiancoding.com/sketch --><title>logo-sauvc</title><desc>Created with Sketch.</desc><defs></defs><g id="Page-1" stroke="none" stroke-width="1" fill="none" fill-rule="evenodd"><g id="logo-sauvc"><rect id="Rectangle" fill="#F8C86C" x="0" y="28" width="302" height="100" rx="50"></rect><path d="M58.68,95.72 C56.1999876,95.72 53.6500131,95.2700045 51.03,94.37 C48.4099869,93.4699955 46.0400106,92.0600096 43.92,90.14 L49.8,83.06 C51.200007,84.1800056 52.7099919,85.0899965 54.33,85.79 C55.9500081,86.4900035 57.4799928,86.84 58.92,86.84 C60.4800078,86.84 61.6099965,86.6000024 62.31,86.12 C63.0100035,85.6399976 63.36,84.9600044 63.36,84.08 C63.36,83.5999976 63.2400012,83.2000016 63,82.88 C62.7599988,82.5599984 62.4100023,82.2600014 61.95,81.98 C61.4899977,81.6999986 60.9400032,81.4300013 60.3,81.17 C59.6599968,80.9099987 58.9200042,80.6200016 58.08,80.3 L53.22,78.26 C52.1799948,77.859998 51.1800048,77.3300033 50.22,76.67 C49.2599952,76.0099967 48.4200036,75.2300045 47.7,74.33 C46.9799964,73.4299955 46.4100021,72.4000058 45.99,71.24 C45.5699979,70.0799942 45.36,68.800007 45.36,67.4 C45.36,65.7199916 45.7199964,64.1500073 46.44,62.69 C47.1600036,61.2299927 48.1599936,59.9500055 49.44,58.85 C50.7200064,57.7499945 52.2499911,56.8800032 54.03,56.24 C55.8100089,55.5999968 57.7599894,55.28 59.88,55.28 C62.1200112,55.28 64.3899885,55.6999958 66.69,56.54 C68.9900115,57.3800042 71.039991,58.699991 72.84,60.5 L67.68,66.98 C66.3599934,66.0599954 65.0900061,65.3600024 63.87,64.88 C62.6499939,64.3999976 61.3200072,64.16 59.88,64.16 C58.5999936,64.16 57.6000036,64.3799978 56.88,64.82 C56.1599964,65.2600022 55.8,65.9199956 55.8,66.8 C55.8,67.7200046 56.3099949,68.4299975 57.33,68.93 C58.3500051,69.4300025 59.759991,70.0199966 61.56,70.7 L66.3,72.56 C68.7400122,73.5200048 70.6199934,74.8599914 71.94,76.58 C73.2600066,78.3000086 73.92,80.5199864 73.92,83.24 C73.92,84.8800082 73.5800034,86.4599924 72.9,87.98 C72.2199966,89.5000076 71.2300065,90.8299943 69.93,91.97 C68.6299935,93.1100057 67.0400094,94.0199966 65.16,94.7 C63.2799906,95.3800034 61.1200122,95.72 58.68,95.72 Z M100.24,76.04 L99.58,78.74 L106.78,78.74 L106.12,76.04 C105.639998,74.1599906 105.160002,72.120011 104.68,69.92 C104.199998,67.719989 103.720002,65.6400098 103.24,63.68 L103,63.68 C102.559998,65.68001 102.110002,67.7699891 101.65,69.95 C101.189998,72.1300109 100.720002,74.1599906 100.24,76.04 Z M85.24,95 L97.12,56 L109.6,56 L121.48,95 L110.56,95 L108.64,86.72 L97.72,86.72 L95.8,95 L85.24,95 Z M150.56,95.72 C145.079973,95.72 141.010013,94.1300159 138.35,90.95 C135.689987,87.7699841 134.36,82.8400334 134.36,76.16 L134.36,56 L144.68,56 L144.68,77.36 C144.68,80.8400174 145.149995,83.2899929 146.09,84.71 C147.030005,86.1300071 148.51999,86.84 150.56,86.84 C152.60001,86.84 154.109995,86.1300071 155.09,84.71 C156.070005,83.2899929 156.56,80.8400174 156.56,77.36 L156.56,56 L166.52,56 L166.52,76.16 C166.52,82.8400334 165.220013,87.7699841 162.62,90.95 C160.019987,94.1300159 156.000027,95.72 150.56,95.72 Z M190.92,95 L179.4,56 L190.32,56 L194.4,73.04 C194.960003,75.1200104 195.439998,77.1699899 195.84,79.19 C196.240002,81.2100101 196.719997,83.2799894 197.28,85.4 L197.52,85.4 C198.080003,83.2799894 198.569998,81.2100101 198.99,79.19 C199.410002,77.1699899 199.879997,75.1200104 200.4,73.04 L204.36,56 L214.92,56 L203.4,95 L190.92,95 Z M244.96,95.72 C242.479988,95.72 240.110011,95.3100041 237.85,94.49 C235.589989,93.6699959 233.610009,92.4300083 231.91,90.77 C230.209992,89.1099917 228.860005,87.0300125 227.86,84.53 C226.859995,82.0299875 226.36,79.1200166 226.36,75.8 C226.36,72.5199836 226.879995,69.6100127 227.92,67.07 C228.960005,64.5299873 230.349991,62.3900087 232.09,60.65 C233.830009,58.9099913 235.829989,57.5800046 238.09,56.66 C240.350011,55.7399954 242.719988,55.28 245.2,55.28 C247.800013,55.28 250.11999,55.7899949 252.16,56.81 C254.20001,57.8300051 255.919993,59.039993 257.32,60.44 L251.92,67.04 C250.959995,66.1999958 249.970005,65.5100027 248.95,64.97 C247.929995,64.4299973 246.760007,64.16 245.44,64.16 C244.279994,64.16 243.190005,64.4199974 242.17,64.94 C241.149995,65.4600026 240.250004,66.1999952 239.47,67.16 C238.689996,68.1200048 238.070002,69.299993 237.61,70.7 C237.149998,72.100007 236.92,73.6799912 236.92,75.44 C236.92,79.1200184 237.689992,81.9399902 239.23,83.9 C240.770008,85.8600098 242.799987,86.84 245.32,86.84 C246.840008,86.84 248.189994,86.5100033 249.37,85.85 C250.550006,85.1899967 251.559996,84.4000046 252.4,83.48 L257.8,89.96 C256.119992,91.8800096 254.190011,93.3199952 252.01,94.28 C249.829989,95.2400048 247.480013,95.72 244.96,95.72 Z" id="SAUVC" fill="#1C455D"></path><path d="M302,77.9790031 C302,64.5080031 296.663,52.2910031 288,43.3000031 L288,112.658003 C296.663,103.667003 302,91.4500031 302,77.9790031" id="Fill-1" fill="#F59A63"></path><path d="M14,77.9790031 C14,64.5080031 8.663,52.2910031 0,43.3000031 L0,112.658003 C8.663,103.667003 14,91.4500031 14,77.9790031" id="Fill-1-Copy" fill="#F59A63" transform="translate(7.000000, 77.979003) scale(-1, 1) translate(-7.000000, -77.979003)"></path><path d="M111,0 L191,0 L191,0 C196.522847,-1.01453063e-15 201,4.4771525 201,10 L201,28 L101,28 L101,10 L101,10 C101,4.4771525 105.477153,1.01453063e-15 111,0 Z" id="Rectangle-2" fill="#F59A63"></path><rect id="Rectangle-4" fill="#1C455D" x="268" y="112" width="20" height="40"></rect><path d="M194,112 L244.346763,112 L244.346763,112 C251.238117,112 257.919367,114.372565 263.267324,118.718841 L279.609375,132 L263.267324,145.281159 L263.267324,145.281159 C257.919367,149.627435 251.238117,152 244.346763,152 L194,152 L194,152 C182.954305,152 174,143.045695 174,132 L174,132 L174,132 C174,120.954305 182.954305,112 194,112 Z" id="Rectangle-3" fill="#1C455D"></path></g></g><g id="textToPathGroup"><path stroke="none" stroke-width="1" id="textToPath-0" d="M194.899994,140 L194.899994,137.5 C195.899994,136.600006 196.800003,135.699997 197.699997,134.899994 C198.5,134.100006 199.199997,133.399994 199.800003,132.699997 C200.5,132 201,131.300003 201.300003,130.699997 C201.699997,130 201.899994,129.399994 201.899994,128.899994 C201.899994,128.100006 201.699997,127.600006 201.300003,127.199997 C200.899994,126.899994 200.399994,126.699997 199.800003,126.699997 C199.300003,126.699997 198.800003,126.800003 198.399994,127.199997 C197.899994,127.5 197.5,127.800003 197.100006,128.199997 L194.699997,125.900002 C195.199997,125.400002 195.600006,125 196,124.699997 C196.399994,124.300003 196.899994,124.099998 197.300003,123.800003 C197.800003,123.599998 198.300003,123.5 198.800003,123.400002 C199.300003,123.300003 199.800003,123.199997 200.399994,123.199997 C201.300003,123.199997 202,123.300003 202.699997,123.599998 C203.399994,123.900002 204,124.199997 204.5,124.699997 C205,125.199997 205.399994,125.699997 205.699997,126.399994 C206,127.100006 206.100006,127.800003 206.100006,128.600006 C206.100006,129.300003 206,129.899994 205.699997,130.600006 C205.399994,131.300003 205,132 204.600006,132.699997 C204.100006,133.300003 203.600006,134 203.100006,134.600006 C202.5,135.300003 201.899994,135.899994 201.399994,136.5 C201.800003,136.399994 202.300003,136.399994 202.800003,136.300003 C203.300003,136.300003 203.800003,136.300003 204.100006,136.300003 L206.899994,136.300003 L206.899994,140  Z M215.100006,140.300003 C214.100006,140.300003 213.300003,140.100006 212.600006,139.800003 C211.800003,139.399994 211.199997,138.800003 210.600006,138.100006 C210.100006,137.399994 209.699997,136.5 209.399994,135.399994 C209.100006,134.300003 208.899994,133.100006 208.899994,131.699997 C208.899994,130.300003 209.100006,129 209.399994,128 C209.699997,126.899994 210.100006,126 210.600006,125.300003 C211.199997,124.599998 211.800003,124.099998 212.600006,123.699997 C213.300003,123.400002 214.100006,123.199997 215.100006,123.199997 C216,123.199997 216.800003,123.400002 217.5,123.699997 C218.300003,124.099998 218.899994,124.599998 219.5,125.300003 C220,126 220.5,126.899994 220.800003,128 C221,129 221.199997,130.300003 221.199997,131.699997 C221.199997,133.100006 221,134.300003 220.800003,135.399994 C220.5,136.5 220,137.399994 219.5,138.100006 C218.899994,138.800003 218.300003,139.399994 217.5,139.800003 C216.800003,140.100006 216,140.300003 215.100006,140.300003  Z M215.100006,136.899994 C215.300003,136.899994 215.600006,136.800003 215.800003,136.699997 C216,136.600006 216.199997,136.300003 216.399994,135.899994 C216.600006,135.5 216.699997,135 216.800003,134.300003 C216.899994,133.699997 217,132.800003 217,131.699997 C217,130.600006 216.899994,129.699997 216.800003,129.100006 C216.699997,128.399994 216.600006,127.899994 216.399994,127.5 C216.199997,127.199997 216,126.899994 215.800003,126.800003 C215.600006,126.699997 215.300003,126.600006 215.100006,126.600006 C214.800003,126.600006 214.600006,126.699997 214.300003,126.800003 C214.100006,126.899994 213.899994,127.199997 213.699997,127.5 C213.5,127.899994 213.399994,128.399994 213.300003,129.100006 C213.199997,129.699997 213.100006,130.600006 213.100006,131.699997 C213.100006,132.800003 213.199997,133.699997 213.300003,134.300003 C213.399994,135 213.5,135.5 213.699997,135.899994 C213.899994,136.300003 214.100006,136.600006 214.300003,136.699997 C214.600006,136.800003 214.800003,136.899994 215.100006,136.899994  Z M223.800003,140 L223.800003,136.399994 L227.300003,136.399994 L227.300003,127.899994 L224.199997,127.899994 L224.199997,125.099998 C225.100006,124.900002 225.899994,124.699997 226.600006,124.5 C227.300003,124.199997 227.899994,123.900002 228.5,123.5 L231.800003,123.5 L231.800003,136.399994 L234.800003,136.399994 L234.800003,140  Z M242.800003,130.800003 C243.199997,130.800003 243.600006,130.699997 244,130.5 C244.399994,130.300003 244.699997,129.899994 244.899994,129.399994 C244.800003,128.800003 244.699997,128.300003 244.600006,128 C244.399994,127.600006 244.199997,127.300003 244,127.100006 C243.800003,126.899994 243.600006,126.699997 243.399994,126.600006 C243.199997,126.600006 243,126.5 242.800003,126.5 C242.300003,126.5 241.899994,126.699997 241.5,127 C241.199997,127.399994 241,128 241,128.800003 C241,129.199997 241.100006,129.5 241.199997,129.800003 C241.300003,130 241.399994,130.199997 241.600006,130.399994 C241.699997,130.5 241.899994,130.600006 242.100006,130.699997 C242.399994,130.800003 242.600006,130.800003 242.800003,130.800003  Z M242.300003,140.300003 C241.100006,140.300003 240.100006,140.100006 239.300003,139.699997 C238.399994,139.300003 237.699997,138.800003 237.199997,138.199997 L239.5,135.600006 C239.800003,135.899994 240.100006,136.100006 240.600006,136.399994 C241.100006,136.600006 241.5,136.699997 242,136.699997 C242.399994,136.699997 242.800003,136.699997 243.100006,136.5 C243.5,136.399994 243.800003,136.100006 244.100006,135.699997 C244.300003,135.399994 244.600006,134.899994 244.699997,134.399994 C244.899994,133.800003 245,133.100006 245,132.300003 C244.800003,132.5 244.600006,132.800003 244.300003,133 C244.100006,133.199997 243.800003,133.399994 243.5,133.5 C243.199997,133.600006 243,133.699997 242.699997,133.800003 C242.399994,133.899994 242.199997,133.899994 241.899994,133.899994 C241.199997,133.899994 240.600006,133.800003 240,133.600006 C239.399994,133.399994 238.800003,133.100006 238.399994,132.699997 C238,132.300003 237.600006,131.699997 237.300003,131.100006 C237.100006,130.5 237,129.699997 237,128.800003 C237,127.899994 237.100006,127.100006 237.399994,126.5 C237.699997,125.800003 238.100006,125.199997 238.600006,124.699997 C239.199997,124.199997 239.800003,123.800003 240.5,123.599998 C241.199997,123.300003 241.899994,123.199997 242.699997,123.199997 C243.5,123.199997 244.300003,123.400002 245,123.699997 C245.800003,124 246.5,124.400002 247.100006,125.099998 C247.699997,125.800003 248.199997,126.600006 248.600006,127.699997 C248.899994,128.699997 249.100006,130 249.100006,131.5 C249.100006,133 248.899994,134.300003 248.5,135.399994 C248.199997,136.5 247.699997,137.399994 247,138.100006 C246.399994,138.899994 245.699997,139.399994 244.899994,139.800003 C244,140.100006 243.199997,140.300003 242.300003,140.300003  Z " fill="white" transform=""></path></g></svg>

<svg width="302" height="152" xmlns="http://www.w3.org/2000/svg">
 <!-- Generator: Sketch 47.1 (45422) - http://www.bohemiancoding.com/sketch -->
 <title>logo-sauvc</title>
 <desc>Created with Sketch.</desc>

 <g>
  <title>background</title>
  <rect fill="none" id="canvas_background" height="402" width="582" y="-1" x="-1"/>
 </g>
 <g>
  <title>Layer 1</title>
  <g fill-rule="evenodd" fill="none" id="Page-1">
   <g id="logo-sauvc">
    <rect rx="50" height="100" width="302" y="28" fill="#F8C86C" id="Rectangle"/>
    <path fill="#1C455D" id="SAUVC" d="m58.68,95.72c-2.48001,0 -5.02999,-0.45 -7.65,-1.35c-2.62001,-0.9 -4.98999,-2.30999 -7.11,-4.23l5.88,-7.08c1.40001,1.12001 2.90999,2.03 4.53,2.73c1.62001,0.7 3.14999,1.05 4.59,1.05c1.56001,0 2.69,-0.24 3.39,-0.72c0.7,-0.48 1.05,-1.16 1.05,-2.04c0,-0.48 -0.12,-0.88 -0.36,-1.2c-0.24,-0.32 -0.59,-0.62 -1.05,-0.9c-0.46,-0.28 -1.01,-0.55 -1.65,-0.81c-0.64,-0.26 -1.38,-0.55 -2.22,-0.87l-4.86,-2.04c-1.04001,-0.4 -2.04,-0.93 -3,-1.59c-0.96,-0.66 -1.8,-1.44 -2.52,-2.34c-0.72,-0.9 -1.29,-1.92999 -1.71,-3.09c-0.42,-1.16001 -0.63,-2.43999 -0.63,-3.84c0,-1.68001 0.36,-3.24999 1.08,-4.71c0.72,-1.46001 1.71999,-2.73999 3,-3.84c1.28001,-1.10001 2.80999,-1.97 4.59,-2.61c1.78001,-0.64 3.72999,-0.96 5.85,-0.96c2.24001,0 4.50999,0.42 6.81,1.26c2.30001,0.84 4.34999,2.15999 6.15,3.96l-5.16,6.48c-1.32001,-0.92 -2.58999,-1.62 -3.81,-2.1c-1.22001,-0.48 -2.54999,-0.72 -3.99,-0.72c-1.28001,0 -2.28,0.22 -3,0.66c-0.72,0.44 -1.08,1.1 -1.08,1.98c0,0.92 0.50999,1.63 1.53,2.13c1.02001,0.5 2.42999,1.09 4.23,1.77l4.74,1.86c2.44001,0.96 4.31999,2.29999 5.64,4.02c1.32001,1.72001 1.98,3.93999 1.98,6.66c0,1.64001 -0.34,3.21999 -1.02,4.74c-0.68,1.52001 -1.66999,2.84999 -2.97,3.99c-1.30001,1.14001 -2.88999,2.05 -4.77,2.73c-1.88001,0.68 -4.03999,1.02 -6.48,1.02zm41.56,-19.68l-0.66,2.7l7.2,0l-0.66,-2.7c-0.48,-1.88001 -0.96,-3.91999 -1.44,-6.12c-0.48,-2.20001 -0.96,-4.27999 -1.44,-6.24l-0.24,0c-0.44,2.00001 -0.89,4.08999 -1.35,6.27c-0.46,2.18001 -0.93,4.20999 -1.41,6.09zm-15,18.96l11.88,-39l12.48,0l11.88,39l-10.92,0l-1.92,-8.28l-10.92,0l-1.92,8.28l-10.56,0zm65.32,0.72c-5.48003,0 -9.54999,-1.58998 -12.21,-4.77c-2.66001,-3.18002 -3.99,-8.10997 -3.99,-14.79l0,-20.16l10.32,0l0,21.36c0,3.48002 0.46999,5.92999 1.41,7.35c0.94,1.42001 2.42999,2.13 4.47,2.13c2.04001,0 3.54999,-0.70999 4.53,-2.13c0.98001,-1.42001 1.47,-3.86998 1.47,-7.35l0,-21.36l9.96,0l0,20.16c0,6.68003 -1.29999,11.60998 -3.9,14.79c-2.60001,3.18002 -6.61997,4.77 -12.06,4.77zm40.36,-0.72l-11.52,-39l10.92,0l4.08,17.04c0.56,2.08001 1.04,4.12999 1.44,6.15c0.4,2.02001 0.88,4.08999 1.44,6.21l0.24,0c0.56,-2.12001 1.05,-4.18999 1.47,-6.21c0.42,-2.02001 0.89,-4.06999 1.41,-6.15l3.96,-17.04l10.56,0l-11.52,39l-12.48,0zm54.04,0.72c-2.48001,0 -4.84999,-0.41 -7.11,-1.23c-2.26001,-0.82 -4.23999,-2.05999 -5.94,-3.72c-1.70001,-1.66001 -3.04999,-3.73999 -4.05,-6.24c-1.00001,-2.50001 -1.5,-5.40998 -1.5,-8.73c0,-3.28002 0.52,-6.18999 1.56,-8.73c1.04,-2.54001 2.42999,-4.67999 4.17,-6.42c1.74001,-1.74001 3.73999,-3.07 6,-3.99c2.26001,-0.92 4.62999,-1.38 7.11,-1.38c2.60001,0 4.91999,0.50999 6.96,1.53c2.04001,1.02001 3.75999,2.22999 5.16,3.63l-5.4,6.6c-0.96001,-0.84 -1.95,-1.53 -2.97,-2.07c-1.02001,-0.54 -2.18999,-0.81 -3.51,-0.81c-1.16001,0 -2.24999,0.26 -3.27,0.78c-1.02001,0.52 -1.92,1.26 -2.7,2.22c-0.78,0.96 -1.4,2.13999 -1.86,3.54c-0.46,1.40001 -0.69,2.97999 -0.69,4.74c0,3.68002 0.76999,6.49999 2.31,8.46c1.54001,1.96001 3.56999,2.94 6.09,2.94c1.52001,0 2.86999,-0.33 4.05,-0.99c1.18001,-0.66 2.19,-1.45 3.03,-2.37l5.4,6.48c-1.68001,1.92001 -3.60999,3.36 -5.79,4.32c-2.18001,0.96 -4.52999,1.44 -7.05,1.44z"/>
    <path fill="#F59A63" id="Fill-1" d="m302,77.979c0,-13.471 -5.337,-25.688 -14,-34.679l0,69.358c8.663,-8.991 14,-21.208 14,-34.679"/>
    <path fill="#F59A63" id="Fill-1-Copy" d="m0,77.979c0,-13.471 5.337,-25.688 14,-34.679l0,69.358c-8.663,-8.991 -14,-21.208 -14,-34.679"/>
    <path fill="#F59A63" id="Rectangle-2" d="m111,0l80,0l0,0c5.52285,0 10,4.47715 10,10l0,18l-100,0l0,-18l0,0c0,-5.52285 4.47715,-10 10,-10z"/>
    <rect height="40" width="20" y="112" x="268" fill="#1C455D" id="Rectangle-4"/>
    <path fill="#1C455D" id="Rectangle-3" d="m194,112l50.34676,0l0,0c6.89136,0 13.57261,2.37256 18.92056,6.71884l16.34206,13.28116l-16.34206,13.28116l0,0c-5.34795,4.34627 -12.0292,6.71884 -18.92056,6.71884l-50.34676,0l0,0c-11.04569,0 -20,-8.95431 -20,-20l0,0l0,0c0,-11.04569 8.95431,-20 20,-20z"/>
   </g>
  </g>
  <g id="textToPathGroup">
   <path fill="white" d="m194.73332,140l0,-2.5c1,-0.89999 1.90001,-1.8 2.80001,-2.60001c0.8,-0.79998 1.5,-1.5 2.1,-2.19999c0.7,-0.7 1.2,-1.4 1.5,-2c0.4,-0.7 0.59999,-1.30001 0.59999,-1.80001c0,-0.79998 -0.19999,-1.29998 -0.59999,-1.69999c-0.40001,-0.30001 -0.90001,-0.5 -1.5,-0.5c-0.5,0 -1,0.1 -1.40001,0.5c-0.5,0.3 -0.89999,0.6 -1.29998,1l-2.40001,-2.3c0.5,-0.5 0.90001,-0.9 1.3,-1.2c0.39999,-0.4 0.89999,-0.6 1.3,-0.9c0.5,-0.2 1,-0.3 1.5,-0.4c0.5,-0.1 1,-0.2 1.59999,-0.2c0.90001,0 1.60001,0.1 2.30001,0.4c0.69999,0.3 1.3,0.6 1.8,1.1c0.5,0.5 0.89999,1 1.2,1.69999c0.3,0.70002 0.40001,1.40001 0.40001,2.20002c0,0.69999 -0.10001,1.29998 -0.40001,2c-0.30001,0.69999 -0.7,1.39999 -1.09999,2.09999c-0.5,0.6 -1,1.3 -1.5,1.90001c-0.60001,0.69999 -1.20002,1.29998 -1.70002,1.89999c0.40001,-0.10001 0.90001,-0.10001 1.40001,-0.2c0.5,0 1,0 1.30001,0l2.79998,0l0,3.7l-12,0zm20.20002,0.3c-1,0 -1.80001,-0.19999 -2.5,-0.5c-0.80001,-0.40001 -1.40001,-1 -2,-1.69999c-0.5,-0.70002 -0.90001,-1.60001 -1.20002,-2.70002c-0.29998,-1.09999 -0.5,-2.29998 -0.5,-3.69999c0,-1.4 0.20002,-2.7 0.5,-3.7c0.30001,-1.10001 0.70002,-2 1.20002,-2.7c0.59999,-0.7 1.19999,-1.2 2,-1.6c0.69999,-0.3 1.5,-0.5 2.5,-0.5c0.89999,0 1.69999,0.2 2.39999,0.5c0.8,0.4 1.39999,0.9 2,1.6c0.5,0.7 1,1.59999 1.3,2.7c0.2,1 0.4,2.3 0.4,3.7c0,1.40001 -0.2,2.6 -0.4,3.69999c-0.3,1.10001 -0.8,2 -1.3,2.70002c-0.60001,0.69999 -1.2,1.29998 -2,1.69999c-0.7,0.30001 -1.5,0.5 -2.39999,0.5zm0,-3.40001c0.19999,0 0.5,-0.09999 0.69999,-0.19999c0.2,-0.09999 0.4,-0.4 0.59999,-0.80001c0.20002,-0.39999 0.30001,-0.89999 0.40001,-1.59999c0.09999,-0.6 0.2,-1.5 0.2,-2.6c0,-1.09999 -0.10001,-2 -0.2,-2.59999c-0.1,-0.70002 -0.19999,-1.20002 -0.40001,-1.60001c-0.19999,-0.3 -0.39999,-0.60001 -0.59999,-0.7c-0.19999,-0.1 -0.5,-0.19999 -0.69999,-0.19999c-0.30001,0 -0.5,0.09999 -0.80001,0.19999c-0.19999,0.09999 -0.40001,0.4 -0.6,0.7c-0.2,0.39999 -0.30001,0.89999 -0.4,1.60001c-0.1,0.59999 -0.19999,1.5 -0.19999,2.59999c0,1.1 0.09999,2 0.19999,2.6c0.09999,0.7 0.2,1.2 0.4,1.59999c0.19999,0.40001 0.40001,0.70002 0.6,0.80001c0.30001,0.1 0.5,0.19999 0.80001,0.19999z" id="textToPath-0"/>
   <path fill="white" d="m222.733319,139.833333l0,-2.5c1,-0.89999 1.90001,-1.8 2.80001,-2.60001c0.8,-0.79998 1.5,-1.5 2.1,-2.19999c0.7,-0.7 1.2,-1.4 1.5,-2c0.4,-0.7 0.59999,-1.30001 0.59999,-1.80001c0,-0.79998 -0.19999,-1.29998 -0.59999,-1.69999c-0.40001,-0.30001 -0.90001,-0.5 -1.5,-0.5c-0.5,0 -1,0.1 -1.40001,0.5c-0.5,0.3 -0.89999,0.6 -1.29998,1l-2.40001,-2.3c0.5,-0.5 0.90001,-0.9 1.3,-1.2c0.39999,-0.4 0.89999,-0.6 1.3,-0.9c0.5,-0.2 1,-0.3 1.5,-0.4c0.5,-0.1 1,-0.2 1.59999,-0.2c0.90001,0 1.60001,0.1 2.30001,0.4c0.69999,0.3 1.3,0.6 1.8,1.1c0.5,0.5 0.89999,1 1.2,1.69999c0.3,0.70002 0.40001,1.40001 0.40001,2.20002c0,0.69999 -0.10001,1.29998 -0.40001,2c-0.30001,0.69999 -0.7,1.39999 -1.09999,2.09999c-0.5,0.6 -1,1.3 -1.5,1.90001c-0.60001,0.69999 -1.20002,1.29998 -1.70002,1.89999c0.40001,-0.10001 0.90001,-0.10001 1.40001,-0.2c0.5,0 1,0 1.30001,0l2.79998,0l0,3.7l-12,0zm20.20002,0.3c-1,0 -1.80001,-0.19999 -2.5,-0.5c-0.80001,-0.40001 -1.40001,-1 -2,-1.69999c-0.5,-0.70002 -0.90001,-1.60001 -1.20002,-2.70002c-0.29998,-1.09999 -0.5,-2.29998 -0.5,-3.69999c0,-1.4 0.20002,-2.7 0.5,-3.7c0.30001,-1.10001 0.70002,-2 1.20002,-2.7c0.59999,-0.7 1.19999,-1.2 2,-1.6c0.69999,-0.3 1.5,-0.5 2.5,-0.5c0.89999,0 1.69999,0.2 2.39999,0.5c0.8,0.4 1.39999,0.9 2,1.6c0.5,0.7 1,1.59999 1.3,2.7c0.2,1 0.4,2.3 0.4,3.7c0,1.40001 -0.2,2.6 -0.4,3.69999c-0.3,1.10001 -0.8,2 -1.3,2.70002c-0.60001,0.69999 -1.2,1.29998 -2,1.69999c-0.7,0.30001 -1.5,0.5 -2.39999,0.5zm0,-3.40001c0.19999,0 0.5,-0.09999 0.69999,-0.19999c0.2,-0.09999 0.4,-0.4 0.59999,-0.80001c0.20002,-0.39999 0.30001,-0.89999 0.40001,-1.59999c0.09999,-0.6 0.2,-1.5 0.2,-2.6c0,-1.09999 -0.10001,-2 -0.2,-2.59999c-0.1,-0.70002 -0.19999,-1.20002 -0.40001,-1.60001c-0.19999,-0.3 -0.39999,-0.60001 -0.59999,-0.7c-0.19999,-0.1 -0.5,-0.19999 -0.69999,-0.19999c-0.30001,0 -0.5,0.09999 -0.80001,0.19999c-0.19999,0.09999 -0.40001,0.4 -0.6,0.7c-0.2,0.39999 -0.30001,0.89999 -0.4,1.60001c-0.1,0.59999 -0.19999,1.5 -0.19999,2.59999c0,1.1 0.09999,2 0.19999,2.6c0.09999,0.7 0.2,1.2 0.4,1.59999c0.19999,0.40001 0.40001,0.70002 0.6,0.80001c0.30001,0.1 0.5,0.19999 0.80001,0.19999z" id="svg_3"/>
   <path fill="white" d="m194.73332,140l0,-2.5c1,-0.89999 1.90001,-1.8 2.80001,-2.60001c0.8,-0.79998 1.5,-1.5 2.1,-2.19999c0.7,-0.7 1.2,-1.4 1.5,-2c0.4,-0.7 0.59999,-1.30001 0.59999,-1.80001c0,-0.79998 -0.19999,-1.29998 -0.59999,-1.69999c-0.40001,-0.30001 -0.90001,-0.5 -1.5,-0.5c-0.5,0 -1,0.1 -1.40001,0.5c-0.5,0.3 -0.89999,0.6 -1.29998,1l-2.40001,-2.3c0.5,-0.5 0.90001,-0.9 1.3,-1.2c0.39999,-0.4 0.89999,-0.6 1.3,-0.9c0.5,-0.2 1,-0.3 1.5,-0.4c0.5,-0.1 1,-0.2 1.59999,-0.2c0.90001,0 1.60001,0.1 2.30001,0.4c0.69999,0.3 1.3,0.6 1.8,1.1c0.5,0.5 0.89999,1 1.2,1.69999c0.3,0.70002 0.40001,1.40001 0.40001,2.20002c0,0.69999 -0.10001,1.29998 -0.40001,2c-0.30001,0.69999 -0.7,1.39999 -1.09999,2.09999c-0.5,0.6 -1,1.3 -1.5,1.90001c-0.60001,0.69999 -1.20002,1.29998 -1.70002,1.89999c0.40001,-0.10001 0.90001,-0.10001 1.40001,-0.2c0.5,0 1,0 1.30001,0l2.79998,0l0,3.7l-12,0zm20.20002,0.3c-1,0 -1.80001,-0.19999 -2.5,-0.5c-0.80001,-0.40001 -1.40001,-1 -2,-1.69999c-0.5,-0.70002 -0.90001,-1.60001 -1.20002,-2.70002c-0.29998,-1.09999 -0.5,-2.29998 -0.5,-3.69999c0,-1.4 0.20002,-2.7 0.5,-3.7c0.30001,-1.10001 0.70002,-2 1.20002,-2.7c0.59999,-0.7 1.19999,-1.2 2,-1.6c0.69999,-0.3 1.5,-0.5 2.5,-0.5c0.89999,0 1.69999,0.2 2.39999,0.5c0.8,0.4 1.39999,0.9 2,1.6c0.5,0.7 1,1.59999 1.3,2.7c0.2,1 0.4,2.3 0.4,3.7c0,1.40001 -0.2,2.6 -0.4,3.69999c-0.3,1.10001 -0.8,2 -1.3,2.70002c-0.60001,0.69999 -1.2,1.29998 -2,1.69999c-0.7,0.30001 -1.5,0.5 -2.39999,0.5zm0,-3.40001c0.19999,0 0.5,-0.09999 0.69999,-0.19999c0.2,-0.09999 0.4,-0.4 0.59999,-0.80001c0.20002,-0.39999 0.30001,-0.89999 0.40001,-1.59999c0.09999,-0.6 0.2,-1.5 0.2,-2.6c0,-1.09999 -0.10001,-2 -0.2,-2.59999c-0.1,-0.70002 -0.19999,-1.20002 -0.40001,-1.60001c-0.19999,-0.3 -0.39999,-0.60001 -0.59999,-0.7c-0.19999,-0.1 -0.5,-0.19999 -0.69999,-0.19999c-0.30001,0 -0.5,0.09999 -0.80001,0.19999c-0.19999,0.09999 -0.40001,0.4 -0.6,0.7c-0.2,0.39999 -0.30001,0.89999 -0.4,1.60001c-0.1,0.59999 -0.19999,1.5 -0.19999,2.59999c0,1.1 0.09999,2 0.19999,2.6c0.09999,0.7 0.2,1.2 0.4,1.59999c0.19999,0.40001 0.40001,0.70002 0.6,0.80001c0.30001,0.1 0.5,0.19999 0.80001,0.19999z" id="svg_4"/>
  </g>
 </g>
</svg>
